X:45
T:Coleman's Jig
M:6/8
L:1/8
Q:120
S:THSP
R:jig
N:
Z:
K:D
"D"fdB BAF|Adf afd|"G"~g3 ~f3|"A"fed ede|
"D"fdB BAF|Adf afd|"G"~g3 ~f3
|1 "A"edc "D"d2e:|2 "A"edc "D"dcB||:
"D"Add dcB|AFD DFA|"A"Bee e2d|cAA ABc|
"D"dfd "A"cec|"G"(3Bcd B "D"ABc|"G"dAF "D"EDE
|1 "A"FDD "D"D2B:|2 "A"FDD "D"D2e |]
